src/assets/my-logo/logo.svg

<?xml version="1.0" encoding="utf-8"?>
<svg viewBox="0 1.1 143 143" xmlns="http://www.w3.org/2000/svg">
  <path fill="#000" opacity="1.000000" stroke="none" d="M 89 144 C 59.359 144 30.218 144 1.038 144 C 1.038 96.401 1.038 48.801 1.038 1.101 C 48.558 1.101 96.115 1.101 143.837 1.101 C 143.837 48.666 143.837 96.333 143.837 144 C 125.801 144 107.651 144 89 144 M 133.199 125.424 C 125.236 111.432 117.272 97.439 109.116 83.108 C 110.468 82.503 111.325 82.096 112.199 81.733 C 126.967 75.595 133.738 64.902 132.142 50.23 C 130.601 36.06 121.463 26.13 106.198 24.045 C 96.701 22.747 86.933 23.234 77.292 23.35 C 75.227 23.375 72.555 24.738 71.226 26.358 C 53.157 48.379 35.271 70.551 17.363 92.703 C 16.619 93.623 16.018 94.503 14.574 96.343 C 18.936 96.343 23.948 96.273 27.412 96.246 C 31.296 96.216 33.727 94.952 36.494 91.616 C 50.638 74.563 64.964 57.66 79.321 40.786 C 80.512 39.387 82.383 37.719 83.986 37.667 C 90.298 37.465 96.677 37.436 102.941 38.143 C 109.959 38.935 114.146 43.161 115.351 49.315 C 118.011 62.904 111.837 70.523 97.917 70.755 C 93.384 70.831 88.849 70.767 83.504 70.767 C 94.521 90.525 104.95 109.267 115.465 127.96 C 115.945 128.815 117.181 129.748 118.092 129.775 C 123.654 129.943 129.225 129.859 135.401 129.859 C 134.55 128.111 134.06 127.104 133.199 125.424 M 77.417 96.076 C 72.512 87.818 67.607 79.56 62.438 70.857 C 59.119 74.752 55.99 78.189 53.194 81.879 C 52.527 82.76 52.433 84.782 52.985 85.774 C 60.83 99.87 68.812 113.891 76.846 127.881 C 77.343 128.747 78.528 129.745 79.421 129.772 C 85.094 129.943 90.776 129.859 97.229 129.859 C 90.385 118.199 84.08 107.458 77.417 96.076 M 14.13 63.5 C 14.13 70.512 14.13 77.525 14.13 85.994 C 19.336 79.53 23.698 74.505 27.561 69.122 C 29.072 67.017 30.176 64.124 30.238 61.561 C 30.503 50.586 30.322 39.599 30.274 28.617 C 30.266 26.877 30.102 25.138 30.014 23.457 C 24.487 23.457 19.559 23.457 14.13 23.457 C 14.13 36.638 14.13 49.569 14.13 63.5 Z" />
  <path fill="#fff" opacity="1.000000" stroke="none" d="M 133.385 125.761 C 134.06 127.104 134.55 128.111 135.401 129.859 C 129.225 129.859 123.654 129.943 118.092 129.775 C 117.181 129.748 115.945 128.815 115.465 127.96 C 104.95 109.267 94.521 90.525 83.504 70.767 C 88.849 70.767 93.384 70.831 97.917 70.755 C 111.837 70.523 118.011 62.904 115.351 49.315 C 114.146 43.161 109.959 38.935 102.941 38.143 C 96.677 37.436 90.298 37.465 83.986 37.667 C 82.383 37.719 80.512 39.387 79.321 40.786 C 64.964 57.66 50.638 74.563 36.494 91.616 C 33.727 94.952 31.852 96.224 27.455 96.281 C 23.161 96.337 18.807 96.346 14.445 96.346 C 15.799 94.619 16.619 93.623 17.363 92.703 C 35.271 70.551 53.157 48.379 71.226 26.358 C 72.555 24.738 75.227 23.375 77.292 23.35 C 86.933 23.234 96.701 22.747 106.198 24.045 C 121.463 26.13 130.601 36.06 132.142 50.23 C 133.738 64.902 126.967 75.595 112.199 81.733 C 111.325 82.096 110.468 82.503 109.116 83.108 C 117.272 97.439 125.236 111.432 133.385 125.761 Z" />
  <path fill="#fff" opacity="1.000000" stroke="none" d=" M77.596062,96.396614 C84.079895,107.458153 90.385101,118.199463 97.229431,129.859207 C90.775665,129.859207 85.094368,129.943497 79.420792,129.772034 C78.528122,129.745041 77.342911,128.747452 76.845573,127.881332 C68.812012,113.890915 60.830097,99.870186 52.984570,85.773895 C52.432789,84.782486 52.526775,82.759636 53.194378,81.878654 C55.990219,78.189186 59.119308,74.752251 62.438011,70.856934 C67.607483,79.560287 72.512459,87.818336 77.596062,96.396614 z" />
  <path fill="#fff" opacity="1.000000" stroke="none" d=" M14.129782,62.999802 C14.129782,49.568806 14.129782,36.637749 14.129782,23.457050 C19.559189,23.457050 24.486689,23.457050 30.013590,23.457050 C30.102188,25.138340 30.266041,26.877495 30.273752,28.617342 C30.322430,39.599438 30.503355,50.585720 30.238016,61.560886 C30.176039,64.124458 29.071735,67.016823 27.560989,69.122124 C23.698265,74.505035 19.336342,79.529724 14.129781,85.994324 C14.129781,77.524666 14.129781,70.512207 14.129782,62.999802 z" />
</svg>

<svg viewBox="0 1.1 143 143" xmlns="http://www.w3.org/2000/svg">
    <path d="M89 144H1.038V1.101h142.799V144H89m44.199-18.576-24.083-42.316c1.352-.605 2.209-1.012 3.083-1.375 14.768-6.138 21.539-16.831 19.943-31.503-1.541-14.17-10.679-24.1-25.944-26.185-9.497-1.298-19.265-.811-28.906-.695-2.065.025-4.737 1.388-6.066 3.008-18.069 22.021-35.955 44.193-53.863 66.345-.744.92-1.345 1.8-2.789 3.64 4.362 0 9.374-.07 12.838-.097 3.884-.03 6.315-1.294 9.082-4.63 14.144-17.053 28.47-33.956 42.827-50.83 1.191-1.399 3.062-3.067 4.665-3.119 6.312-.202 12.691-.231 18.955.476 7.018.792 11.205 5.018 12.41 11.172 2.66 13.589-3.514 21.208-17.434 21.44-4.533.076-9.068.012-14.413.012 11.017 19.758 21.446 38.5 31.961 57.193.48.855 1.716 1.788 2.627 1.815 5.562.168 11.133.084 17.309.084-.851-1.748-1.341-2.755-2.202-4.435M77.417 96.076 62.438 70.857c-3.319 3.895-6.448 7.332-9.244 11.022-.667.881-.761 2.903-.209 3.895 7.845 14.096 15.827 28.117 23.861 42.107.497.866 1.682 1.864 2.575 1.891 5.673.171 11.355.087 17.808.087-6.844-11.66-13.149-22.401-19.812-33.783M14.13 63.5v22.494c5.206-6.464 9.568-11.489 13.431-16.872 1.511-2.105 2.615-4.998 2.677-7.561.265-10.975.084-21.962.036-32.944-.008-1.74-.172-3.479-.26-5.16H14.13V63.5Z"/>
    <path fill="#fff" d="M133.385 125.761c.675 1.343 1.165 2.35 2.016 4.098-6.176 0-11.747.084-17.309-.084-.911-.027-2.147-.96-2.627-1.815-10.515-18.693-20.944-37.435-31.961-57.193 5.345 0 9.88.064 14.413-.012 13.92-.232 20.094-7.851 17.434-21.44-1.205-6.154-5.392-10.38-12.41-11.172-6.264-.707-12.643-.678-18.955-.476-1.603.052-3.474 1.72-4.665 3.119-14.357 16.874-28.683 33.777-42.827 50.83-2.767 3.336-4.642 4.608-9.039 4.665-4.294.056-8.648.065-13.01.065 1.354-1.727 2.174-2.723 2.918-3.643 17.908-22.152 35.794-44.324 53.863-66.345 1.329-1.62 4.001-2.983 6.066-3.008 9.641-.116 19.409-.603 28.906.695 15.265 2.085 24.403 12.015 25.944 26.185 1.596 14.672-5.175 25.365-19.943 31.503-.874.363-1.731.77-3.083 1.375 8.156 14.331 16.12 28.324 24.269 42.653Z"/>
    <path fill="#fff" d="M77.596 96.397c6.484 11.061 12.79 21.802 19.633 33.462-6.453 0-12.135.084-17.808-.087-.893-.027-2.078-1.025-2.575-1.89C68.812 113.89 60.83 99.87 52.985 85.773c-.552-.992-.458-3.014.21-3.895 2.795-3.69 5.924-7.127 9.243-11.022a29382.99 29382.99 0 0 1 15.158 25.54zM14.13 63V23.457h15.884c.088 1.681.252 3.42.26 5.16.048 10.982.23 21.969-.036 32.944-.062 2.563-1.166 5.456-2.677 7.561-3.863 5.383-8.225 10.408-13.431 16.872V63z"/>
</svg>
